icons/linear-new-textedit-office-delete-key.svg

<svg xmlns="http://www.w3.org/2000/svg" width="32px" height="32px" viewBox="0 0 32 32" version="1.1">
    <title>linear-new-textedit-office-delete-key</title>
    <g id="linear-new-textedit-office-delete-key" stroke-width="1" fill-rule="evenodd">
        <path d="M29,5 C29.5522847,5 30,5.44771525 30,6 L30,26 C30,26.5522847 29.5522847,27 29,27 L9,27 C8.6736862,27 8.36789675,26.840789 8.18076808,26.5734623 L1.18076808,16.5734623 C0.939743974,16.2291422 0.939743974,15.7708578 1.18076808,15.4265377 L8.18076808,5.42653766 C8.36789675,5.15921098 8.6736862,5 9,5 L29,5 Z M28,7 L9.52,7 L3.22,16 L9.521,25 L28,25 L28,7 Z M14.2071068,11.7928932 L17,14.585 L19.7928932,11.7928932 C20.1834175,11.4023689 20.8165825,11.4023689 21.2071068,11.7928932 C21.5976311,12.1834175 21.5976311,12.8165825 21.2071068,13.2071068 L18.415,16 L21.2071068,18.7928932 C21.5976311,19.1834175 21.5976311,19.8165825 21.2071068,20.2071068 C20.8165825,20.5976311 20.1834175,20.5976311 19.7928932,20.2071068 L17,17.415 L14.2071068,20.2071068 C13.8165825,20.5976311 13.1834175,20.5976311 12.7928932,20.2071068 C12.4023689,19.8165825 12.4023689,19.1834175 12.7928932,18.7928932 L15.585,16 L12.7928932,13.2071068 C12.4023689,12.8165825 12.4023689,12.1834175 12.7928932,11.7928932 C13.1834175,11.4023689 13.8165825,11.4023689 14.2071068,11.7928932 Z" id="&#24418;&#29366;&#32467;&#21512;" fill-rule="nonzero" />
    </g>
</svg>

<svg xmlns="http://www.w3.org/2000/svg" viewBox="0 0 32 32"><path fill="currentColor" d="M29 5a1 1 0 0 1 1 1v20a1 1 0 0 1-1 1H9a1 1 0 0 1-.82-.427l-7-10a1 1 0 0 1 0-1.146l7-10A1 1 0 0 1 9 5zm-1 2H9.52l-6.3 9 6.301 9H28zm-13.793 4.793L17 14.585l2.793-2.792a1 1 0 0 1 1.414 1.414L18.415 16l2.792 2.793a1 1 0 0 1-1.414 1.414L17 17.415l-2.793 2.792a1 1 0 0 1-1.414-1.414L15.585 16l-2.792-2.793a1 1 0 0 1 1.414-1.414"/></svg>
